X:1
T: Moness Falls
C:
R:Strathspey
Q: 128
K:D
M:4/4
L:1/16
A4|:d4 A3d Fd3 D4|((3G2F2E2) ((3E2F2G2) ((3A2B2c2) ((3c2d2e2) |f2d2 g3f e3d Bd3|AF3 f3F E4 A4|
d4 A3d Fd3 D4|((3G2F2E2) ((3E2F2G2) ((3A2B2c2) ((3c2d2e2) |f2d2 g3f e3d Bd3|AF3 E3D D8|
df3 g3f e3d Bd3|AF3 F3A BAGF E4|df3 g3f e3d Bd3|AF3 E3D D8|
df3 g3f e3d Bd3|AF3 F3A BAGF E4|FA3 GB3 Ac3 d3e|f3d g3f e4 d4:|
